mimetypes/symbolic/x-office-calendar-symbolic.svg

<?xml version="1.0" encoding="UTF-8" standalone="no"?>
<!-- Created with Inkscape (http://www.inkscape.org/) -->

<svg
   xmlns:osb="http://www.openswatchbook.org/uri/2009/osb"
   xmlns:dc="http://purl.org/dc/elements/1.1/"
   xmlns:cc="http://creativecommons.org/ns#"
   xmlns:rdf="http://www.w3.org/1999/02/22-rdf-syntax-ns#"
   xmlns:svg="http://www.w3.org/2000/svg"
   xmlns="http://www.w3.org/2000/svg"
   xmlns:sodipodi="http://sodipodi.sourceforge.net/DTD/sodipodi-0.dtd"
   xmlns:inkscape="http://www.inkscape.org/namespaces/inkscape"
   sodipodi:docname="x-office-calendar-symbolic.svg"
   inkscape:export-filename="/home/sam/source-symbolic.png"
   inkscape:export-xdpi="270"
   inkscape:export-ydpi="270"
   height="16"
   id="svg7384"
   style="enable-background:new"
   version="1.1"
   inkscape:version="0.91 r13725"
   width="16">
  <sodipodi:namedview
     inkscape:bbox-nodes="true"
     inkscape:bbox-paths="true"
     bordercolor="#666666"
     borderlayer="false"
     borderopacity="1"
     inkscape:current-layer="svg7384"
     inkscape:cx="6.8095745"
     inkscape:cy="9.6765694"
     gridtolerance="10"
     inkscape:guide-bbox="true"
     guidetolerance="10"
     id="namedview88"
     inkscape:object-nodes="true"
     inkscape:object-paths="true"
     objecttolerance="10"
     pagecolor="#f7f7f7"
     inkscape:pageopacity="1"
     inkscape:pageshadow="2"
     showborder="true"
     showgrid="false"
     showguides="true"
     inkscape:showpageshadow="false"
     inkscape:snap-bbox="true"
     inkscape:snap-bbox-edge-midpoints="false"
     inkscape:snap-bbox-midpoints="false"
     inkscape:snap-center="false"
     inkscape:snap-global="true"
     inkscape:snap-grids="true"
     inkscape:snap-intersection-paths="true"
     inkscape:snap-midpoints="true"
     inkscape:snap-nodes="true"
     inkscape:snap-object-midpoints="true"
     inkscape:snap-others="true"
     inkscape:snap-page="false"
     inkscape:snap-smooth-nodes="true"
     inkscape:snap-to-guides="true"
     inkscape:window-height="642"
     inkscape:window-maximized="1"
     inkscape:window-width="1366"
     inkscape:window-x="0"
     inkscape:window-y="33"
     inkscape:zoom="32">
    <inkscape:grid
       color="#000000"
       dotted="false"
       empcolor="#0800ff"
       empopacity="0.4627451"
       empspacing="4"
       enabled="true"
       id="grid4866"
       opacity="0.16470588"
       originx="-584px"
       originy="-548px"
       snapvisiblegridlinesonly="true"
       spacingx="0.25px"
       spacingy="0.25px"
       type="xygrid"
       visible="true" />
  </sodipodi:namedview>
  <metadata
     id="metadata90">
    <rdf:RDF>
      <cc:Work
         rdf:about="">
        <dc:format>image/svg+xml</dc:format>
        <dc:type
           rdf:resource="http://purl.org/dc/dcmitype/StillImage" />
        <dc:title>Paper Symbolic Icon Theme</dc:title>
      </cc:Work>
    </rdf:RDF>
  </metadata>
  <title
     id="title8473">Paper Symbolic Icon Theme</title>
  <defs
     id="defs7386">
    <linearGradient
       id="linearGradient5606"
       osb:paint="solid">
      <stop
         id="stop5608"
         offset="0"
         style="stop-color:#000000;stop-opacity:1;" />
    </linearGradient>
    <linearGradient
       id="linearGradient4207"
       osb:paint="gradient">
      <stop
         style="stop-color:#3498db;stop-opacity:1;"
         offset="0"
         id="stop3371" />
      <stop
         style="stop-color:#3498db;stop-opacity:0;"
         offset="1"
         id="stop3373" />
    </linearGradient>
  </defs>
  <path
     style="font-style:normal;font-weight:normal;font-size:medium;line-height:125%;font-family:sans-serif;letter-spacing:0px;word-spacing:0px;opacity:1;fill:#bebebe;fill-opacity:1;fill-rule:evenodd;stroke:none;stroke-width:1px;stroke-linecap:butt;stroke-linejoin:miter;stroke-opacity:1"
     d="M 3.0800781 2.5390625 C 2.5113099 2.5031325 2.5234375 2.740617 2.5234375 3.296875 L 2.5234375 8.0234375 L 2 12.496094 C 2 12.842121 2.118346 12.959277 2.34375 12.996094 L 2.34375 13.398438 C 2.34375 13.490467 2.3409025 13.56863 2.3515625 13.648438 C 2.3622225 13.728248 2.3941295 13.825264 2.4707031 13.892578 C 2.5472761 13.959888 2.6393478 13.981656 2.7363281 13.992188 C 2.8317011 14.002548 2.9418349 14.001994 3.0839844 13.996094 L 13.046875 13.996094 C 13.309651 13.996094 13.474722 14.015314 13.632812 13.894531 C 13.711863 13.834141 13.754902 13.734273 13.765625 13.648438 C 13.776345 13.562597 13.768914 13.478967 13.757812 13.378906 L 13.759766 13.398438 L 13.759766 13.003906 C 13.951499 12.953113 14.022163 12.825695 13.994141 12.458984 L 13.572266 7.9726562 L 13.572266 3.34375 C 13.614666 2.7717078 13.561269 2.5390625 13.042969 2.5390625 L 3.0800781 2.5390625 z M 9.578125 5.5546875 C 9.9726493 5.5528542 10.299907 5.6687672 10.5625 5.9042969 C 10.825075 6.1353612 10.95746 6.4297708 10.958984 6.7890625 C 10.960851 7.2228387 10.76475 7.5476989 10.371094 7.7597656 L 10.371094 7.7851562 C 10.5859 7.8762213 10.762363 8.0153252 10.900391 8.203125 C 11.042705 8.3909065 11.114137 8.6145337 11.115234 8.8730469 C 11.117034 9.2717715 10.975759 9.6030174 10.689453 9.8671875 C 10.403234 10.126976 10.052686 10.257922 9.6367188 10.259766 L 9.6347656 10.259766 C 9.33887 10.261075 9.0529779 10.167637 8.7734375 9.9804688 C 8.4938944 9.7932973 8.2982429 9.5145401 8.1894531 9.1425781 L 8.7285156 8.9101562 C 8.798171 9.1552214 8.9130225 9.3453431 9.0722656 9.4804688 C 9.2315114 9.6155942 9.4183966 9.6825913 9.6328125 9.6816406 C 9.8729592 9.680594 10.079118 9.6033533 10.25 9.4492188 C 10.425169 9.2950851 10.512685 9.102843 10.511719 8.875 C 10.510652 8.6515384 10.418925 8.4650571 10.238281 8.3125 C 10.061808 8.1599219 9.8502836 8.0828818 9.6015625 8.0839844 L 9.2207031 8.0859375 L 9.21875 7.5214844 L 9.5527344 7.5195312 C 9.7843035 7.5184838 9.975465 7.4524054 10.125 7.3203125 C 10.278819 7.1881804 10.354446 7.0120489 10.353516 6.7929688 C 10.35273 6.5870355 10.277635 6.4242797 10.126953 6.3066406 C 9.9806474 6.1889858 9.7987838 6.1318435 9.5800781 6.1328125 C 9.2027055 6.1343838 8.9476873 6.3300499 8.8164062 6.7207031 L 8.2695312 6.4863281 C 8.3542741 6.244961 8.5047521 6.0292228 8.7226562 5.8398438 C 8.9405606 5.6504646 9.2264806 5.5562458 9.578125 5.5546875 z M 6.2148438 5.5683594 C 6.6222342 5.566526 6.9580363 5.692312 7.2207031 5.9453125 C 7.4833699 6.198284 7.615679 6.5025117 7.6171875 6.8574219 C 7.6190208 7.2955795 7.3871543 7.7660007 6.921875 8.2675781 L 5.640625 9.59375 L 7.6796875 9.5839844 L 7.6816406 10.164062 L 4.8789062 10.175781 L 4.875 9.5703125 C 5.7118458 8.7034135 6.2476806 8.1389422 6.4824219 7.875 C 6.6915266 7.6330803 6.8319179 7.4511329 6.9042969 7.328125 C 6.9766601 7.2007357 7.0125018 7.0434035 7.0117188 6.859375 C 7.010933 6.6709675 6.937447 6.5052742 6.7910156 6.3613281 C 6.6445973 6.2173821 6.449512 6.1473533 6.2050781 6.1484375 C 5.9820853 6.1494851 5.8026654 6.2171382 5.6660156 6.3535156 C 5.5293475 6.4855718 5.4422397 6.6277213 5.4042969 6.78125 L 4.8632812 6.5605469 C 4.9351784 6.3236161 5.0857296 6.1000157 5.3164062 5.8886719 C 5.5470804 5.677328 5.8460454 5.5699936 6.2148438 5.5683594 z M 2.8242188 13.005859 L 13.365234 13.042969 C 13.376242 13.042969 13.381898 13.041047 13.392578 13.041016 L 13.392578 13.408203 L 13.394531 13.419922 C 13.404641 13.511182 13.405804 13.574007 13.402344 13.601562 C 13.398944 13.629123 13.403756 13.608316 13.410156 13.603516 C 13.422886 13.593816 13.3024 13.628906 13.046875 13.628906 L 3.0800781 13.628906 L 3.0761719 13.628906 C 2.9374504 13.634806 2.8361183 13.635506 2.7753906 13.628906 C 2.7146626 13.622306 2.7044026 13.609727 2.7128906 13.617188 C 2.7213806 13.624688 2.7197036 13.635959 2.7148438 13.599609 C 2.7099837 13.563259 2.7089844 13.492446 2.7089844 13.398438 L 2.7089844 13.009766 C 2.7495858 13.007767 2.7798277 13.008579 2.8242188 13.005859 z "
     id="path4248" />
</svg>

<svg xmlns="http://www.w3.org/2000/svg" viewBox="0 0 16 16">
  <path fill="#bebebe" d="M3.08 2.539c-.569-.036-.557.202-.557.758v4.726L2 12.496c0 .346.118.463.344.5v.402c0 .092-.003.171.008.25.01.08.042.177.119.245a.45.45 0 0 0 .265.099c.096.011.206.01.348.004h9.963c.263 0 .428.019.586-.101a.379.379 0 0 0 .133-.247c.01-.085.003-.169-.008-.269l.002.019v-.394c.191-.051.262-.178.234-.545l-.422-4.486V3.344c.043-.572-.011-.805-.529-.805zm6.498 3.016c.395-.002.722.114.985.349.262.231.394.526.396.885.002.434-.194.759-.588.971v.025c.215.091.391.23.529.418.143.188.214.412.215.67.002.399-.139.73-.426.994-.286.26-.636.391-1.052.393h-.002a1.515 1.515 0 0 1-.862-.28c-.279-.187-.475-.465-.584-.837l.54-.233c.069.245.184.435.343.57a.83.83 0 0 0 .561.202.897.897 0 0 0 .617-.233.731.731 0 0 0 .262-.574.711.711 0 0 0-.274-.562.931.931 0 0 0-.636-.229l-.381.002-.002-.565.334-.001a.846.846 0 0 0 .572-.2.658.658 0 0 0 .229-.527.585.585 0 0 0-.227-.486.834.834 0 0 0-.547-.174c-.377.001-.632.197-.764.588l-.546-.235c.084-.241.235-.457.453-.646.218-.19.503-.284.855-.285zm-3.363.013c.407-.001.743.124 1.006.377.262.253.395.558.396.912.002.439-.23.909-.695 1.411L5.641 9.594l2.039-.01.002.58-2.803.012-.004-.606a74.051 74.051 0 0 0 1.607-1.695c.21-.242.35-.424.422-.547a.922.922 0 0 0 .108-.469c-.001-.188-.075-.354-.221-.498s-.341-.214-.586-.213a.732.732 0 0 0-.539.206.893.893 0 0 0-.262.427l-.541-.22c.072-.237.223-.461.453-.672.231-.212.53-.319.899-.321zm-3.391 7.438l10.541.037.028-.002v.367l.002.012c.01.091.011.154.007.182-.003.027.002.006.008.002.013-.01-.108.025-.363.025H3.076c-.139.006-.24.007-.301 0-.06-.007-.071-.019-.062-.012.008.008.007.019.002-.017a1.946 1.946 0 0 1-.006-.202v-.388c.041-.002.071-.001.115-.004z"/>
</svg>
